svg/database-fill-gear.svg

<?xml version="1.0" encoding="UTF-8"?>
<svg xmlns="http://www.w3.org/2000/svg" xmlns:xlink="http://www.w3.org/1999/xlink" width="32" height="32" viewBox="0 0 32 32">
<path fill-rule="nonzero" fill="rgb(0%, 0%, 0%)" fill-opacity="1" d="M 16 2 C 12.855469 2 9.957031 2.578125 7.808594 3.554688 C 5.75 4.488281 4 5.984375 4 8 C 4 10.015625 5.75 11.511719 7.808594 12.445312 C 9.957031 13.421875 12.855469 14 16 14 C 19.144531 14 22.042969 13.421875 24.191406 12.445312 C 26.25 11.511719 28 10.015625 28 8 C 28 5.984375 26.25 4.488281 24.191406 3.554688 C 22.042969 2.578125 19.144531 2 16 2 M 4 14 L 4 12.320312 C 4.914062 13.1875 6.007812 13.824219 6.980469 14.265625 C 9.445312 15.386719 12.636719 16 16 16 C 19.363281 16 22.554688 15.386719 25.019531 14.265625 C 25.992188 13.824219 27.085938 13.1875 28 12.320312 L 28 14 C 28 14.847656 27.691406 15.605469 27.179688 16.265625 C 23.515625 15.359375 19.671875 16.832031 17.546875 19.953125 C 17.03125 19.984375 16.515625 20 16 20 C 12.855469 20 9.957031 19.421875 7.808594 18.445312 C 5.75 17.511719 4 16.015625 4 14 M 16.515625 21.996094 L 16 22 C 12.636719 22 9.445312 21.386719 6.980469 20.265625 C 6.007812 19.824219 4.914062 19.1875 4 18.320312 L 4 20 C 4 22.015625 5.75 23.511719 7.808594 24.445312 C 9.957031 25.421875 12.855469 26 16 26 L 16.054688 26 C 15.90625 24.648438 16.0625 23.277344 16.515625 21.996094 M 16.511719 27.996094 L 16 28 C 12.636719 28 9.445312 27.386719 6.980469 26.265625 C 6.007812 25.824219 4.914062 25.1875 4 24.320312 L 4 26 C 4 28.015625 5.75 29.511719 7.808594 30.445312 C 9.957031 31.421875 12.855469 32 16 32 C 17.070312 32 18.117188 31.933594 19.109375 31.804688 C 17.929688 30.78125 17.035156 29.46875 16.511719 27.996094 M 23.773438 18.921875 C 24.132812 17.695312 25.867188 17.695312 26.230469 18.921875 L 26.316406 19.214844 C 26.425781 19.585938 26.695312 19.886719 27.054688 20.035156 C 27.410156 20.183594 27.816406 20.164062 28.15625 19.980469 L 28.429688 19.832031 C 29.550781 19.21875 30.78125 20.449219 30.171875 21.570312 L 30.019531 21.84375 C 29.835938 22.183594 29.8125 22.585938 29.960938 22.945312 C 30.109375 23.300781 30.414062 23.574219 30.785156 23.683594 L 31.082031 23.773438 C 32.304688 24.132812 32.304688 25.867188 31.082031 26.230469 L 30.78125 26.316406 C 30.410156 26.425781 30.109375 26.699219 29.960938 27.054688 C 29.8125 27.414062 29.835938 27.816406 30.023438 28.15625 L 30.171875 28.429688 C 30.78125 29.550781 29.550781 30.78125 28.429688 30.171875 L 28.15625 30.019531 C 27.816406 29.835938 27.414062 29.8125 27.054688 29.960938 C 26.699219 30.109375 26.425781 30.414062 26.316406 30.785156 L 26.226562 31.082031 C 25.867188 32.304688 24.132812 32.304688 23.769531 31.082031 L 23.683594 30.78125 C 23.574219 30.410156 23.300781 30.109375 22.945312 29.960938 C 22.585938 29.8125 22.183594 29.835938 21.84375 30.023438 L 21.570312 30.171875 C 20.449219 30.78125 19.21875 29.550781 19.828125 28.429688 L 19.980469 28.15625 C 20.164062 27.816406 20.1875 27.414062 20.039062 27.054688 C 19.890625 26.699219 19.585938 26.425781 19.214844 26.316406 L 18.921875 26.226562 C 17.695312 25.867188 17.695312 24.132812 18.921875 23.769531 L 19.214844 23.683594 C 19.585938 23.574219 19.886719 23.304688 20.035156 22.945312 C 20.183594 22.589844 20.164062 22.183594 19.980469 21.84375 L 19.832031 21.570312 C 19.21875 20.449219 20.449219 19.21875 21.570312 19.828125 L 21.84375 19.980469 C 22.183594 20.164062 22.585938 20.1875 22.945312 20.039062 C 23.300781 19.890625 23.574219 19.585938 23.683594 19.214844 Z M 28 25 C 28.019531 23.914062 27.453125 22.902344 26.515625 22.355469 C 25.347656 21.667969 23.863281 21.851562 22.894531 22.800781 C 21.925781 23.753906 21.714844 25.234375 22.378906 26.414062 C 23.042969 27.597656 24.414062 28.1875 25.730469 27.859375 C 27.046875 27.527344 27.976562 26.355469 28 25 "/>
</svg>

<svg role="img" viewBox="0 0 32 32" height="32" width="32" xmlns="http://www.w3.org/2000/svg"><path d="M16 2c-3.145 0-6.043.578-8.191 1.555C5.75 4.488 4 5.985 4 8c0 2.016 1.75 3.512 3.809 4.445C9.957 13.422 12.855 14 16 14c3.145 0 6.043-.578 8.191-1.555C26.25 11.512 28 10.015 28 8c0-2.016-1.75-3.512-3.809-4.445C22.043 2.578 19.145 2 16 2M4 14v-1.68c.914.867 2.008 1.504 2.98 1.946C9.445 15.386 12.637 16 16 16c3.363 0 6.555-.613 9.02-1.734.972-.442 2.066-1.078 2.98-1.946V14c0 .848-.309 1.605-.82 2.266a9.034 9.034 0 0 0-9.633 3.687A25.8 25.8 0 0 1 16 20c-3.145 0-6.043-.578-8.191-1.555C5.75 17.512 4 16.015 4 14m12.516 7.996L16 22c-3.363 0-6.555-.613-9.02-1.734-.972-.442-2.066-1.078-2.98-1.946V20c0 2.016 1.75 3.512 3.809 4.445C9.957 25.422 12.855 26 16 26h.055a9.054 9.054 0 0 1 .46-4.004m-.003 6L16 28c-3.363 0-6.555-.613-9.02-1.734-.972-.442-2.066-1.078-2.98-1.946V26c0 2.016 1.75 3.512 3.809 4.445C9.957 31.422 12.855 32 16 32c1.07 0 2.117-.066 3.11-.195a9.022 9.022 0 0 1-2.598-3.809m7.261-9.074c.36-1.227 2.094-1.227 2.457 0l.086.293c.11.37.38.672.739.82.355.149.761.13 1.101-.055l.274-.148c1.12-.613 2.351.617 1.742 1.738l-.152.274c-.184.34-.207.742-.06 1.101.15.356.454.63.825.739l.297.09c1.223.359 1.223 2.093 0 2.456l-.3.086c-.372.11-.673.383-.821.739a1.27 1.27 0 0 0 .062 1.101l.149.274c.61 1.12-.621 2.351-1.742 1.742l-.274-.152a1.282 1.282 0 0 0-1.101-.06 1.292 1.292 0 0 0-.739.825l-.09.297c-.359 1.223-2.093 1.223-2.456 0l-.086-.3a1.286 1.286 0 0 0-.739-.821 1.269 1.269 0 0 0-1.101.062l-.274.149c-1.12.61-2.351-.621-1.742-1.742l.152-.274c.184-.34.207-.742.06-1.101a1.292 1.292 0 0 0-.825-.739l-.293-.09c-1.227-.359-1.227-2.093 0-2.456l.293-.086c.37-.11.672-.38.82-.739a1.282 1.282 0 0 0-.055-1.101l-.148-.274c-.613-1.12.617-2.351 1.738-1.742l.274.152c.34.184.742.207 1.101.06.356-.15.63-.454.739-.825ZM28 25a2.997 2.997 0 0 0-1.484-2.645A3.003 3.003 0 1 0 28 25"/></svg>
